X: 1398
T: Dressed in Rags (Gittus version)
B: australian traditional tunes wiki
M:2/4
L:1/8
R: March
Q: 1/4=90
K:D
V:1 
F/G/|AD FF|EAA2|EE/F/ GE|BA AB/c/|
dD cD|BA AF/G/|AG/F/ EC|BA AB/c/|
|dD cD|BA AF/G/|AG/F/ EC|ED Dz||
% abcbook-tune_id 6342d53acfc161e7cf0512b6


% abcbook-boost 0
% abcbook-tablature 
% abcbook-transpose 
% abcbook-lastupdated 1665324363117
% abcbook-soundfonts 
% abcbook-repeats 1
% NFF Book 2019
% Bush Traditions recording played by David Gittus & Julie Gittus

